icons/folder-content-open.svg

<svg xmlns="http://www.w3.org/2000/svg" viewBox="0 0 32 32">
  <path d="M28.96692,12H9.44152a2,2,0,0,0-1.89737,1.36754L4,24V10H28a2,2,0,0,0-2-2H15.1241a2,2,0,0,1-1.28038-.46357L12.5563,6.46357A2,2,0,0,0,11.27592,6H4A2,2,0,0,0,2,8V24a2,2,0,0,0,2,2H26l4.80523-11.21213A2,2,0,0,0,28.96692,12Z" style="fill: #00bcd4"/>
  <g>
    <rect x="22" y="18" width="6" height="2" style="fill: #b2ebf2"/>
    <rect x="22" y="22" width="6" height="2" style="fill: #b2ebf2"/>
    <path d="M10,15V27a1,1,0,0,0,1,1H31a1,1,0,0,0,1-1V15a1,1,0,0,0-1-1H11A1,1,0,0,0,10,15ZM30,26H20V16H30Z" style="fill: #b2ebf2;fill-rule: evenodd"/>
  </g>
</svg>

<svg xmlns="http://www.w3.org/2000/svg" viewBox="0 0 32 32"><path fill="#00bcd4" d="M28.967 12H9.442a2 2 0 0 0-1.898 1.368L4 24V10h24a2 2 0 0 0-2-2H15.124a2 2 0 0 1-1.28-.464l-1.288-1.072A2 2 0 0 0 11.276 6H4a2 2 0 0 0-2 2v16a2 2 0 0 0 2 2h22l4.805-11.212A2 2 0 0 0 28.967 12Z"/><path fill="#b2ebf2" d="M22 18h6v2h-6zm0 4h6v2h-6z"/><path fill="#b2ebf2" fill-rule="evenodd" d="M10 15v12a1 1 0 0 0 1 1h20a1 1 0 0 0 1-1V15a1 1 0 0 0-1-1H11a1 1 0 0 0-1 1Zm20 11H20V16h10Z"/></svg>
